X: 2
T: The Green Cottage
R: polka
M: 2/4
L: 1/8
K: Ador
A/B/|:cB AG|EA A>B|cB AG|B/c/d e>d|cB AG|ED Dc/d/|ed cB|1A2 A>B:|2A2 Ac/d/|:ea a>b|ae ed|ea ag|a2 AB|c2 B{c}B|Ae e>d|eA A/B/c/d/|1e2 e>d:|2e2 e|


